X:144
T:Bishop THO4.144, The
M:6/8
L:1/8
Z:vmp. Peter Dunk 2010/11.from a transcription by Fynn Titford-Mock 2007
B:Thompson's Compleat Collection of 200 Favourite Country Dances Volume IV.
Q:3/8=120
K:G
g3d3|c3 G2 D|EGE FAF|GBc def|g3d3|c3 G2 D|EGE FAF|G3G,3:|
|:ded bgd|cdc afc|BcBgdB|AFD AFD|ded bgd|cdc afc|BdB cAF|G3G,3:|
